packages/product-components/src/images/networks/xlm.svg

<svg width="32" height="32" viewBox="0 0 32 32" fill="none" xmlns="http://www.w3.org/2000/svg">
<path d="M0 8C0 3.58172 3.58172 0 8 0H24C28.4183 0 32 3.58172 32 8V24C32 28.4183 28.4183 32 24 32H8C3.58172 32 0 28.4183 0 24V8Z" fill="#1F1F1F"/>
<path fill-rule="evenodd" clip-rule="evenodd" d="M20.7689 10.9807L23.1772 9.75372L26 8.31355V10.0414L23.1527 11.4926L21.7751 12.1941L9.51581 18.4405L8.83296 18.7882L8.13995 19.1419L6 20.2326V18.5039L6.72685 18.1333C6.99739 17.9954 7.22112 17.7806 7.36988 17.5159C7.51863 17.2513 7.58577 16.9485 7.56287 16.6457C7.54651 16.4319 7.53833 16.2173 7.53833 16.0018C7.53817 14.4415 7.9694 12.9116 8.78437 11.5811C9.59933 10.2507 10.7663 9.1714 12.1563 8.46265C13.5463 7.7539 15.1052 7.44328 16.6607 7.56511C18.2161 7.68692 19.7076 8.23645 20.9704 9.15294L20.7648 9.25786L19.3864 9.96019C18.3327 9.37169 17.1435 9.0687 15.9367 9.08121C14.7299 9.09372 13.5472 9.42129 12.5059 10.0315C11.4646 10.6417 10.6009 11.5133 10.0001 12.5601C9.39935 13.6069 9.08248 14.7923 9.08089 15.9993C9.08101 16.3018 9.1008 16.6039 9.14012 16.9038L20.7689 10.9807ZM10.2122 19.8096L26 11.771V13.4938L25.2723 13.8644C25.002 14.0025 24.7785 14.2173 24.6299 14.482C24.4813 14.7466 24.4143 15.0493 24.4371 15.352C24.4532 15.5669 24.4616 15.7844 24.4616 16.0018C24.4612 17.5618 24.0293 19.0914 23.214 20.4214C22.3987 21.7514 21.2316 22.8301 19.8416 23.5384C18.4516 24.2466 16.8929 24.5569 15.3376 24.4348C13.7824 24.3126 12.2912 23.763 11.0288 22.8465L12.5231 22.0849L12.6077 22.0401C13.6616 22.631 14.8517 22.936 16.06 22.9248C17.2683 22.9136 18.4525 22.5865 19.4953 21.9761C20.5381 21.3658 21.4031 20.4933 22.0044 19.4452C22.6057 18.3972 22.9225 17.2101 22.9233 16.0018C22.9232 15.6974 22.9035 15.3933 22.8641 15.0913L11.2234 21.023L8.81519 22.25L6 23.6842V21.9572L8.83465 20.5128L10.2122 19.8096Z" fill="white"/>
</svg>

<svg xmlns="http://www.w3.org/2000/svg" width="32" height="32" viewBox="0 0 32 32" fill="none">
    <path class="bg" fill="#1F1F1F" d="M0 8a8 8 0 0 1 8-8h16a8 8 0 0 1 8 8v16a8 8 0 0 1-8 8H8a8 8 0 0 1-8-8z"/>
    <path class="fg" fill="#fff" fill-rule="evenodd" d="m20.769 10.98 2.408-1.226L26 8.314v1.727l-2.847 1.452-1.378.701-12.26 6.246-.682.348-.693.354L6 20.232v-1.728l.727-.37a1.54 1.54 0 0 0 .836-1.488A8.462 8.462 0 0 1 20.97 9.153l-.206.105-1.379.702A6.928 6.928 0 0 0 9.14 16.904zm-10.557 8.83L26 11.77v1.723l-.728.37a1.54 1.54 0 0 0-.835 1.488q.024.323.025.65a8.461 8.461 0 0 1-13.433 6.845l1.494-.762.085-.045a6.928 6.928 0 0 0 10.256-6.949l-11.64 5.932-2.409 1.227L6 23.684v-1.727l2.835-1.444z" clip-rule="evenodd"/>
</svg>
